X:76
M:4/4
L:1/4
K:F
F3/2 G/ A G | B A G/E/ F | d c B    A | G A/F/ c2 | F3/2 G/ A G | B A G/E/ F |  d c B    A | G A/F/ c2 | G A G/E/ C | B    A G/E/ C | c B    A3/2 A/ | =B B/c/ c2 | f3/2 e/ d c |  d3/2 c/ c/B/ A | !sintro!G A/B/ c/d/ B/G/ | F A/G/ F2 !eintro!|]
